X:1
T:Christus ovans hostes
T:Daniel Friderici
T:Source : Bicinia sacra---Rostock---J.Richelius---1642. Editor : André Vierendeels (07/07/17).
T:Notes : Original clefs : G2, G2 Dotted brackets indicate black notes Editorial accidentals above the staff Original note values have been quartered in 3-beat measures 
T:Christus ovans hostes
T:©
T:©
C:Daniel Friderici
Z:©
%%score [ 1 2 ]
L:1/8
Q:1/4=120
M:6/4
K:F
V:1 treble nm="Soprano 1" snm="S 1"
V:2 treble nm="Soprano 2" snm="S 2"
V:1
 c4 c2 f4 c2 | A2 F4 z6 | c4 c2 f4 c2 | A2 F4 B4 c2 | =B3 c B2 c4 A2 | B4 G2 A2 A2 F2 | %6
w: Chri- stus o- vans|ho- stes|Chri- stus o- vans|ho- stes, o- vans|ho- * * stes, cap-|ti- vos du- xit, cap-|
 G4 A2 F2 f2 d2 | e4 c2 f2 c2 f2 | e3 d e2 f4 c2 | f4 e2 d2 d2 c2 | B4 A2 G2 G2 F2 | %11
w: ti- vos du- xit, cap-|ti- vos du- xit in|al- * * tum, cap-|ti- vos du- xit in|al- * * tum, in|
 Bc de f2 cB cd ed/e/ | f2 a4 gf ed e2 |[M:2/2] f8 :: d2 dc B2 F2 | f4 f4 | d2 dc B2 F2 | f4 f4 | %18
w: al- * * * * tum, _ _ _ _ _ _|_ in al- * * * *|tum:|At- que su- o in|cae- lum,|at- que su- o in|cae- lum,|
 d2 dd d2 d2 | g4 c4- | c2 c2 g4 | c2 c2 g4 | c2 d3 d c2 | B2 A2 G4 | F8 :| %25
w: at- que su- o in|cae- lum,|_ in cae-|lum, in cae-|lum san- gui- ne|fe- cit i-|ter.|
V:2
 z12 | c4 c2 f4 c2 | A2 F4 z6 | c4 c2 f4 e2 | d3 c d2 e4 f2 | d4 _e2 c2 c2 d2 | B4 c2 A2 A2 B2 | %7
w: |Chri- stus o- vans|ho- stes,|Chri- stus o- vans|ho- * * stes, cap-|ti- vos du- xit, cap-|ti- vos du- xit, cap-|
 G4 A2 F2 F2 F2 | c3 B c2 F6 | z4 c2 f4 e2 | d2 d2 c2 B4 A2 | G2 G2 F2 AG AB c2 | F4 f2 ed ef g2 | %13
w: ti- vos du- xit in|al- * * tum,|cap- ti- vos|du- xit in al- *|* tum, in al- * * * *|tum, in al- * * * *|
[M:2/2] f8 :: z8 | d2 dc B2 F2 | f4 f4 | d2 dc B2 F2 | f4 f4 | e2 ee e2 e2 | g4 c2 c2 | g4 c4 | %22
w: tum:||At- que su- o in|cae- lum,|At- que su- o in|cae- lum,|at- que su- o in|cae- lum, in|cae- lum,|
 z2 B3 B A2 | G2 F4 E2 | F8 :| %25
w: san- gui- ne|fe- cit i-|ter.|

